img/svg/link.svg

<svg width="20" height="20" viewBox="0 0 20 20" fill="none" xmlns="http://www.w3.org/2000/svg">
<path d="M17.875 0.125C18.2188 0.125 18.5625 0.296875 18.8203 0.554688C19.0781 0.8125 19.25 1.15625 19.25 1.5V18C19.25 18.3867 19.0781 18.7305 18.8203 18.9883C18.5625 19.2461 18.2188 19.375 17.875 19.375H1.375C0.988281 19.375 0.644531 19.2461 0.386719 18.9883C0.128906 18.7305 0 18.3867 0 18V1.5C0 1.15625 0.128906 0.8125 0.386719 0.554688C0.644531 0.296875 0.988281 0.125 1.375 0.125H17.875ZM5.80078 16.625H5.84375V7.42969H2.96484V16.625H5.80078ZM4.38281 6.18359C4.8125 6.18359 5.19922 6.05469 5.54297 5.71094C5.88672 5.36719 6.05859 4.98047 6.05859 4.55078C6.05859 4.12109 5.88672 3.73438 5.54297 3.39062C5.19922 3.04688 4.8125 2.875 4.38281 2.875C3.91016 2.875 3.52344 3.04688 3.22266 3.39062C2.87891 3.73438 2.75 4.12109 2.75 4.55078C2.75 4.98047 2.87891 5.36719 3.22266 5.71094C3.52344 6.05469 3.91016 6.18359 4.38281 6.18359ZM16.5 16.625V11.5977C16.5 10.1797 16.2852 9.14844 15.8984 8.46094C15.3398 7.64453 14.3945 7.21484 13.1055 7.21484C12.418 7.21484 11.8594 7.38672 11.3438 7.6875C10.9141 7.94531 10.5703 8.28906 10.3984 8.67578H10.3555V7.42969H7.60547V16.625H10.4414V12.0703C10.4414 11.3828 10.5273 10.8242 10.7422 10.4375C11 9.96484 11.4727 9.70703 12.1602 9.70703C12.8047 9.70703 13.2344 10.0078 13.4492 10.5234C13.5781 10.8672 13.6641 11.4258 13.6641 12.1562V16.625H16.5Z" fill="#0177B4"/>
</svg>

<svg width="20" height="20" viewBox="0 0 20 20" fill="none" xmlns="http://www.w3.org/2000/svg"><path d="M17.875.125c.344 0 .688.172.945.43.258.257.43.601.43.945V18c0 .387-.172.73-.43.988a1.333 1.333 0 01-.945.387h-16.5c-.387 0-.73-.129-.988-.387S0 18.387 0 18V1.5C0 1.156.129.812.387.555c.258-.258.601-.43.988-.43h16.5zm-12.074 16.5h.043V7.43h-2.88v9.195h2.837zM4.383 6.184c.43 0 .816-.13 1.16-.473.344-.344.516-.73.516-1.16 0-.43-.172-.817-.516-1.16-.344-.344-.73-.516-1.16-.516-.473 0-.86.172-1.16.516-.344.343-.473.73-.473 1.16 0 .43.129.816.473 1.16.3.344.687.473 1.16.473zM16.5 16.625v-5.027c0-1.418-.215-2.45-.602-3.137-.558-.816-1.503-1.246-2.793-1.246-.687 0-1.246.172-1.761.473-.43.257-.774.601-.946.988h-.043V7.43h-2.75v9.195h2.836V12.07c0-.687.086-1.246.301-1.633.258-.472.73-.73 1.418-.73.645 0 1.074.3 1.29.816.128.344.214.903.214 1.633v4.469H16.5z" fill="#0177B4"/></svg>
